!!!OTL: Woo'd and Married And A' 
!!!id: HA038
**kern
*clefG2
*k[f#]
*D:
*M9/8
{8ff#
=1
4cc
8b
8.a
16b
8g
4f#}
{8f#
=2
8.a
16b
8cc
8cc
8ff#
8a
4cc}
{8dd
=3
8.cc
16dd
8b
8.a
16b
8g
8.f#}
{16g
8a
=4
4d
8dd
8.dd
16ee
8cc#
4dd}
{8ff#
=5
4cc
8ee
8.ff#
16gg
8ee
4ff#}
{8cc
=6
4a
8cc
8cc
8ff#
8a
4cc}
{8dd
=7
8cc
8dd
8ee
8.ff#
16gg
8ff#
8ee
8dd}
{8cc
=8
4a
8dd
8dd
8ee
8cc#
4.dd}
=9yy
{8cc
8dd
8ee
8.ff#
16gg
8ee
4.ff#}
=10yy
{4a
8cc
8cc
8dd
8a
4cc}
{8ff#
=11
8cc
8dd
8b
8a
8b
8a
8.g}
{16g
8a
=12
4d
8dd
8dd
8ee
8cc#
4.dd}
=13yy
{4cc
8b
8.a
16b
8g
4.f#}
=14yy
{8a
8b
8cc
8.cc
16dd
8a
4cc}
{8ff#
=15
8cc
8dd
8b
8a
8b
8a
8.g}
{16g
8a
=16
4d
8dd
8.dd
16ee
8cc#
4dd}
==
*-
!!!minrhy: 16
!!!meter: 9/8 
!!!cut: Woo'd and Married And A' 
!!!key: HA038  16  d 9/8 
!!!fog: a--b--av-c--d--bv-e--cw-ew-bw-aw-cv-av-bw'aw-cv-
!! Haydn: Volksliedbearbeitungen, Bd1
